images/icons/icon-1.svg

<svg width="60" height="24" viewBox="0 0 60 24" fill="none" xmlns="http://www.w3.org/2000/svg">
<path d="M25 8.9989H28.9995V10.999H25V8.9989Z" fill="#332208"/>
<path d="M59.1418 6.00937L52.349 5.03941C51.1104 4.27858 49.825 3.59749 48.4997 2.99981C44.1231 1.01758 39.373 -0.00526887 34.5679 2.04093e-05H33.3878C27.7173 0.00408898 22.1374 1.42689 17.157 4.13862L13.7288 6.00856C9.71598 6.05372 5.78043 7.12092 2.29411 9.10803C0.877278 9.92053 0.00244141 11.428 0 13.0607V18.998C0 19.5506 0.447591 19.9981 1.00016 19.9981H4.35791C5.45003 23.1134 8.86108 24.7539 11.9767 23.6619C13.6918 23.061 15.0399 21.7126 15.6409 19.9981H42.358C43.4501 23.1134 46.8612 24.7539 49.9768 23.6619C51.6915 23.061 53.0399 21.7126 53.6409 19.9981H53.9998C54.1272 19.9981 54.2533 19.9741 54.3717 19.9269L57.6107 18.6274C59.0576 18.0545 60.0053 16.6541 60 15.0987V6.99927C60 6.50208 59.6342 6.08016 59.1418 6.00937ZM13.9189 18.7983C13.4766 20.9624 11.3635 22.3583 9.19922 21.916C7.0345 21.4738 5.63843 19.361 6.08073 17.1964C6.52344 15.0323 8.63647 13.6364 10.8008 14.0787C12.6632 14.4591 14.0002 16.0975 13.9998 17.9984C13.9998 18.2669 13.9726 18.535 13.9189 18.7983ZM31.9999 17.9984H15.9998C15.9998 14.6849 13.3138 11.9988 10 11.9988C6.6862 11.9988 3.99984 14.6849 3.99984 17.9984H1.99992V13.0607C2.00114 12.1448 2.49186 11.299 3.28695 10.8441C6.55029 8.98109 10.2425 8.00055 13.9998 7.99933H31.9999V17.9984ZM31.9999 5.99961H17.922L18.1148 5.89423C22.3901 3.57105 27.1391 2.25404 31.9999 2.04369V5.99961ZM33.9998 1.99975H34.5658C38.5958 1.99527 42.5891 2.76017 46.3322 4.25376L44.5862 5.99961H33.9998V1.99975ZM51.9189 18.7983C51.4766 20.9624 49.3636 22.3583 47.1989 21.916C45.0346 21.4738 43.6385 19.361 44.0808 17.1964C44.5231 15.0323 46.6365 13.6364 48.8008 14.0787C50.6632 14.4591 52.0003 16.0975 51.9999 17.9984C51.9999 18.2669 51.9726 18.535 51.9189 18.7983ZM58.0001 8.99899H55V10.9991H58.0001V15.0987C58.0025 15.8355 57.5533 16.4987 56.8681 16.7692L53.9998 17.9211C53.9998 17.8291 53.988 17.738 53.9819 17.646C53.9758 17.5541 53.9738 17.4463 53.964 17.3462C53.9538 17.2461 53.9339 17.146 53.918 17.0463C53.9018 16.9462 53.89 16.8461 53.87 16.7554C53.8501 16.6643 53.8208 16.5634 53.7947 16.4682C53.7687 16.3734 53.7488 16.2773 53.7187 16.1842C53.6889 16.0914 53.6527 16.0023 53.619 15.9112C53.5848 15.8204 53.5539 15.7265 53.5189 15.6361C53.4839 15.5462 53.4367 15.4644 53.3948 15.3794C53.3528 15.2944 53.3118 15.2012 53.265 15.1153C53.2178 15.0295 53.1649 14.9563 53.1197 14.8765C53.0749 14.7964 53.02 14.7052 52.963 14.6235C52.9057 14.5413 52.8528 14.4766 52.7978 14.4025C52.7429 14.3285 52.6806 14.2414 52.6168 14.1645C52.5529 14.0876 52.4931 14.0274 52.4308 13.9643C52.369 13.9017 52.2998 13.8166 52.231 13.7467C52.1618 13.6767 52.0939 13.6214 52.0251 13.5595C51.956 13.4977 51.8819 13.4244 51.8058 13.3593C51.7301 13.2946 51.6528 13.2446 51.5771 13.1876C51.501 13.1307 51.425 13.0696 51.3452 13.0163C51.265 12.9635 51.1751 12.9167 51.0893 12.8605C51.003 12.8044 50.933 12.7604 50.852 12.7177C50.7711 12.6746 50.6701 12.6294 50.5782 12.5855C50.4862 12.5415 50.4142 12.5025 50.3292 12.4667C50.2441 12.4305 50.129 12.3926 50.0293 12.3568C49.9292 12.3206 49.8641 12.2925 49.779 12.2657C49.6651 12.2307 49.5483 12.2055 49.4319 12.1766C49.3559 12.1587 49.283 12.1347 49.2061 12.1188C49.0832 12.0936 48.9571 12.0798 48.8322 12.0614C48.7581 12.0517 48.6873 12.0354 48.6133 12.0285C48.4131 12.0086 48.2133 11.9976 48.0033 11.9976C44.6907 12.0008 42.0064 14.6849 42.0032 17.9972H34.0002V7.99893H45C45.2653 7.99893 45.5196 7.89355 45.7068 7.70599L48.3 5.11305C49.3884 5.63099 50.4468 6.20995 51.4701 6.8471C51.5881 6.92074 51.72 6.96916 51.8579 6.98909L58.0001 7.86588V8.99899Z" fill="#332208"/>
</svg>

<svg width="60" height="24" fill="none" xmlns="http://www.w3.org/2000/svg"><path d="M25 8.999h4v2h-4v-2z" fill="#332208"/><path d="M59.142 6.01l-6.793-.97A34.273 34.273 0 0048.499 3a33.678 33.678 0 00-13.931-3h-1.18a33.994 33.994 0 00-16.231 4.139l-3.428 1.87A23.63 23.63 0 002.294 9.108 4.565 4.565 0 000 13.061v5.937a1 1 0 001 1h3.358a5.978 5.978 0 0011.283 0h26.717a5.978 5.978 0 0011.283 0H54c.127 0 .253-.024.372-.071l3.239-1.3A3.781 3.781 0 0060 15.1V7a1 1 0 00-.858-.99zM13.919 18.797a4 4 0 11-7.838-1.602 4 4 0 017.838 1.602zm18.08-.8H16a6 6 0 10-12 0H2V13.06a2.558 2.558 0 011.288-2.217A21.622 21.622 0 0114 8h18v10zM32 6H17.923l.193-.106A31.977 31.977 0 0132 2.044V6zm2-4h.567c4.03-.005 8.023.76 11.766 2.254L44.586 6H34V2zm17.92 16.798a4 4 0 11-7.838-1.602 4 4 0 017.838 1.602zM58 9h-3v2h3v4.1a1.79 1.79 0 01-1.132 1.67L54 17.921c0-.092-.012-.183-.018-.275-.006-.092-.008-.2-.018-.3-.01-.1-.03-.2-.046-.3-.016-.1-.028-.2-.048-.29-.02-.092-.05-.193-.075-.288-.026-.095-.046-.19-.076-.284-.03-.093-.066-.182-.1-.273-.034-.09-.065-.184-.1-.275-.035-.09-.082-.172-.124-.257-.042-.085-.083-.178-.13-.264-.047-.085-.1-.159-.145-.239a3.22 3.22 0 00-.157-.252c-.057-.083-.11-.147-.165-.222-.055-.073-.117-.16-.181-.237a2.84 2.84 0 00-.186-.2c-.062-.063-.131-.148-.2-.218-.07-.07-.137-.126-.206-.188-.069-.061-.143-.135-.22-.2-.075-.064-.152-.114-.228-.171-.076-.057-.152-.118-.232-.172-.08-.053-.17-.1-.256-.155a2.921 2.921 0 00-.237-.143c-.08-.043-.182-.089-.274-.133-.092-.044-.164-.083-.249-.118-.085-.037-.2-.074-.3-.11-.1-.036-.165-.064-.25-.091-.114-.035-.23-.06-.347-.09-.076-.017-.149-.041-.226-.057-.123-.025-.249-.04-.374-.058-.074-.01-.145-.026-.219-.033a6.005 6.005 0 00-6.61 5.969H34V8h11c.265 0 .52-.105.707-.293L48.3 5.113a32.067 32.067 0 013.17 1.734c.118.074.25.122.388.142L58 7.866v1.133z" fill="#332208"/></svg>
